X: 8
T: The New Custom House
R: reel
M: 4/4
L: 1/8
K: Dmix
dB|: ADdD (3EFG AB|cAGE CEGB|ADdD (3EFG AB|c3 ^c dcAG|
ADdD (3EFG AB|cAGE CEGB|ADdD (3EFG AB|cAGE EDD2 :|
Addd Adfd|edcd efg2|Ad (3dcd Adfd|edcd eddB|
Ad (3dcd Adfd|edcd efge|faag efge|1 (3fga ge dcdB :|2 (3fga ge d2B ||


Tune 175	Setting 12819

